images/place-one.svg

<svg width="42" height="51" viewBox="0 0 42 51" fill="none" xmlns="http://www.w3.org/2000/svg">
<path fill-rule="evenodd" clip-rule="evenodd" d="M6.01894 6.96796L6.01894 6.96795C5.97903 6.94583 5.93868 6.92345 5.89445 6.89397H5.90278C5.90552 6.88941 5.90885 6.88455 5.91239 6.8794L5.9124 6.87938C5.91964 6.86883 5.92774 6.85703 5.93334 6.84397C5.94445 6.8398 5.95625 6.83633 5.96806 6.83286L5.96808 6.83285C5.97988 6.82938 5.99168 6.82591 6.00278 6.82174C6.06808 6.86838 6.09077 6.91753 6.11462 6.96918C6.12629 6.99444 6.13823 7.02029 6.15556 7.04674C8.61945 8.59397 9.99723 7.76341 10.9611 5.60508C11.0944 5.29397 11.2222 4.95786 11.3472 4.59952C12.4857 1.25575 15.1641 1.21505 17.7545 1.17568C18.5835 1.16309 19.4035 1.15063 20.1611 1.03008C21.9889 0.743967 21.4056 2.44674 20.6139 3.26619C20.3526 3.54016 20.0454 3.77081 19.7274 4.00969C18.9264 4.61126 18.056 5.265 17.6722 6.79397C18.411 6.79397 19.1181 6.79859 19.8037 6.80307C21.3092 6.81291 22.7101 6.82207 24.1111 6.78008C26.7306 6.7023 27.175 7.65508 25.7306 9.77452C25.4142 10.2417 25.1583 10.7523 24.9029 11.2618L24.9029 11.2619C24.5843 11.8975 24.2666 12.5315 23.8333 13.0773C22.3194 14.9717 22.3528 16.2662 24.8361 17.1495C25.4611 17.3717 26.2667 17.9273 26.425 18.4912C27.1788 21.1624 28.9835 23.1696 30.7829 25.171C32.7766 27.3884 34.7638 29.5987 35.3083 32.6967C35.3337 32.8393 35.351 32.9713 35.3668 33.0922C35.4535 33.7535 35.4967 34.0828 36.5722 33.9912C38.4056 33.819 40.575 33.7967 41.0861 36.1356C41.5778 38.3662 39.9861 39.7856 38.2833 40.9634C38.0514 41.1219 37.8746 41.3543 37.6772 41.614L37.6771 41.614L37.6771 41.6141C37.5908 41.7276 37.5005 41.8462 37.4 41.9662C37.5571 42.6515 38.151 42.6697 38.707 42.6867C39.262 42.7037 39.7792 42.7196 39.7861 43.3967C39.7972 44.5245 38.5889 45.0495 37.7528 45.3079C33.4889 46.6329 28.9972 47.0829 24.625 46.994C22.2911 46.9425 20.2482 47.6884 18.2163 48.4303C16.7417 48.9687 15.2728 49.5051 13.7028 49.7329C13.4729 49.7672 13.2471 49.8186 13.017 49.871C12.1849 50.0604 11.2951 50.2629 9.94167 49.719C11.5466 49.1361 12.6068 47.9544 13.6748 46.7641C15.2687 44.9877 16.8799 43.192 20.3444 43.3384C19.738 43.0864 19.2508 42.8809 18.8417 42.7082L18.8387 42.707L18.8385 42.7069L18.8384 42.7069L18.8384 42.7069C18.0408 42.3703 17.5397 42.1589 17.0278 41.9717C14.6972 41.1301 14.3861 39.494 16.125 37.5995C17.1056 36.5356 17.7833 35.394 15.5611 34.9329C14.3395 34.6811 14.631 34.1584 14.9542 33.5789C15.1874 33.1608 15.4371 32.7131 15.1472 32.3162C14.775 31.8051 15.9972 31.6606 16.7028 31.7495C18.7917 32.019 21.7444 32.3801 20.9333 29.3273C20.8675 29.0806 20.805 28.8026 20.7384 28.5063L20.7384 28.5061L20.7384 28.5059C20.2773 26.4535 19.6182 23.5192 16.2444 23.9634C12.5889 24.444 11.4417 23.5384 13.7278 20.2217C13.2628 20.0137 12.6194 20.254 12.0027 20.4844C10.8327 20.9215 9.75854 21.3228 10.1806 18.5579C10.2056 18.3829 9.86111 17.9634 9.79167 17.9829C9.52591 18.0671 9.25434 18.3304 8.98439 18.5922L8.98438 18.5923C8.39937 19.1596 7.82196 19.7196 7.32778 18.4329C6.97517 17.5155 7.5719 17.273 8.27234 16.9883C8.9845 16.6988 9.80386 16.3658 9.84167 15.2356C9.78653 15.0567 9.3753 15.0527 8.93262 15.0484C8.19327 15.0412 7.3662 15.0332 7.96389 14.2079C9.95345 11.4628 8.4313 10.3091 6.72825 9.01841L6.7282 9.01837L6.72803 9.01825C6.55273 8.88538 6.37551 8.75107 6.2 8.61341C5.9698 8.43416 6.05363 8.1639 6.14326 7.8749C6.18558 7.73845 6.2292 7.59783 6.24167 7.46063C6.24167 7.45647 6.24028 7.45092 6.23889 7.44536L6.23889 7.44536C6.2375 7.4398 6.23611 7.43424 6.23611 7.43008C6.24445 7.29952 6.23056 7.16619 6.15 7.04674C6.10401 7.01513 6.06174 6.99169 6.01895 6.96796L6.01894 6.96796ZM1.47778 27.1856C0.91667 27.094 0.277781 26.5051 0.338892 25.6579C0.461114 24.1023 5.20278 20.9329 7.30834 21.0579C9.24747 21.1646 9.87281 22.4824 10.4606 23.7212C10.6988 24.2232 10.9308 24.7122 11.2417 25.1023C11.15 26.9356 10.0417 27.9717 8.85 27.9773C6.51 28.0064 4.15234 27.6218 1.8227 27.2418L1.47778 27.1856ZM8.19167 1.8773C5.56667 2.5773 4.05278 3.97174 4.23889 6.79119C2.48052 6.96414 2.99058 7.67928 3.46068 8.33839C3.53419 8.44146 3.60672 8.54315 3.66945 8.64119C3.80516 8.33243 4.04138 8.04233 4.28508 7.74303L4.28508 7.74303C4.44041 7.55226 4.59879 7.35775 4.73611 7.1523C4.89026 7.11242 5.04483 7.07169 5.19949 7.03095L5.19969 7.0309C5.4435 6.96666 5.68755 6.90237 5.93056 6.84119C6.16734 6.31917 6.57442 5.87779 6.98732 5.4301C7.82899 4.51752 8.69483 3.57873 8.19167 1.8773ZM3.575 9.42452C3.99723 9.2773 3.88334 8.98286 3.66667 8.64119C3.55834 8.88008 3.49445 9.13008 3.575 9.42452Z" fill="#0E8784"/>
</svg>

<svg width="42" height="51" fill="none" xmlns="http://www.w3.org/2000/svg"><path fill-rule="evenodd" clip-rule="evenodd" d="M6.019 6.968a1.695 1.695 0 0 1-.125-.074h.009a.296.296 0 0 1 .01-.015c.007-.01.015-.022.02-.035a.503.503 0 0 1 .035-.011l.035-.011c.065.046.088.096.112.147.011.025.023.051.04.078 2.464 1.547 3.842.716 4.806-1.442.133-.311.261-.647.386-1.005 1.139-3.344 3.817-3.385 6.408-3.424.829-.013 1.649-.025 2.406-.146 1.828-.286 1.245 1.417.453 2.236-.261.274-.569.505-.887.744-.8.601-1.671 1.255-2.055 2.784.739 0 1.446.005 2.132.01 1.505.009 2.906.018 4.307-.024 2.62-.078 3.064.875 1.62 2.995-.317.467-.573.977-.828 1.487-.319.636-.636 1.27-1.07 1.815-1.514 1.895-1.48 3.19 1.003 4.072.625.223 1.43.778 1.589 1.342.754 2.671 2.558 4.679 4.358 6.68 1.994 2.217 3.98 4.428 4.525 7.526.026.142.043.274.059.395.087.662.13.99 1.205.9 1.834-.173 4.003-.195 4.514 2.144.492 2.23-1.1 3.65-2.803 4.827-.232.159-.408.391-.606.651a9.37 9.37 0 0 1-.277.352c.157.685.751.704 1.307.72.555.018 1.072.034 1.08.71.01 1.129-1.198 1.654-2.034 1.912-4.264 1.325-8.756 1.775-13.128 1.686-2.334-.051-4.377.694-6.409 1.436-1.474.539-2.943 1.075-4.513 1.303-.23.034-.456.086-.686.138-.832.19-1.722.392-3.075-.152 1.605-.583 2.665-1.765 3.733-2.955 1.594-1.776 3.205-3.572 6.67-3.426-.607-.252-1.094-.457-1.503-.63l-.003-.001a40.527 40.527 0 0 0-1.811-.735c-2.33-.842-2.642-2.478-.903-4.373.98-1.063 1.658-2.205-.564-2.666-1.222-.252-.93-.775-.607-1.354.233-.418.483-.866.193-1.263-.372-.51.85-.655 1.556-.567 2.089.27 5.041.631 4.23-2.422a22.188 22.188 0 0 1-.195-.82v-.001c-.46-2.053-1.12-4.987-4.494-4.543-3.655.481-4.802-.425-2.516-3.741-.465-.208-1.109.032-1.725.262-1.17.438-2.244.839-1.822-1.926.025-.175-.32-.595-.39-.575-.265.084-.537.347-.807.61-.585.567-1.162 1.127-1.656-.16-.353-.918.244-1.16.944-1.445.713-.29 1.532-.622 1.57-1.752-.055-.18-.467-.183-.91-.188-.739-.007-1.566-.015-.968-.84 1.99-2.745.467-3.899-1.236-5.19-.175-.133-.352-.267-.528-.405-.23-.179-.146-.45-.057-.738.043-.137.086-.277.099-.414l-.003-.016-.003-.015a.594.594 0 0 0-.086-.383c-.046-.032-.088-.055-.131-.079ZM1.478 27.186c-.561-.092-1.2-.68-1.14-1.528.123-1.556 4.865-4.725 6.97-4.6 1.94.107 2.565 1.424 3.153 2.663.238.502.47.991.78 1.381-.091 1.834-1.2 2.87-2.391 2.875-2.34.03-4.698-.355-7.027-.735l-.345-.056ZM8.192 1.877c-2.625.7-4.14 2.095-3.953 4.914-1.758.173-1.248.888-.778 1.547.073.103.146.205.208.303.136-.309.372-.599.616-.898.155-.19.314-.385.451-.59L5.2 7.03c.245-.064.489-.129.732-.19.236-.522.643-.963 1.056-1.41.842-.913 1.708-1.852 1.205-3.554ZM3.575 9.425c.422-.148.308-.442.092-.784-.109.24-.173.49-.092.784Z" fill="#0E8784"/></svg>
